X: 22
T: Spring is Opening
N: Derived from pawnee22.krn
O: Oklahoma, U.S.A.
N: from Pawnee Music by Frances Densmore, 1926
Z: transcribed to **kern format by David Huron, August 2000
C: Skidi and Chaui Bands, 1919
L: 1/4
M: 2/4
Q: 1/4=88
K: Bb clef=bass
%%linebreak <none>
FF | 
FF | 
FF[M:3/4] | 
F/ D/ D/ C/B,[M:2/4] | 
DC | 
B,B, | 
CB,[M:3/4] | 
B,B,B,[M:2/4] | 
FF | 
FF | 
FF[M:3/4] | 
F/ D/ D/ C/B,[M:2/4] | 
DC | 
B,B, | 
CB,[M:3/4] | 
B,/ G,/ G,/ F,/D,[M:2/4] | 
B,G, | 
F,F, | 
G,F,[M:3/4] | 
F,/ D,/ D,/ C,/B,,[M:2/4] | 
D,C, | 
B,,B,,- | 
B,,B,, | 
B,,2 | 
B,,2 | 
B,B, | 
B,B, | 
CB,[M:3/4] | 
D/ B,/ G,/ F,/D,[M:2/4] | 
B,G, | 
F,F, | 
G,F,[M:3/4] | 
F,/ D,/ D,/ C,/B,,[M:2/4] | 
D,C, | 
B,,B,,- | 
B,,B,, | 
B,,2 | 
B,,2 |]  



